assets/home-tab/Asset/CreditCard.svg

<svg width="26" height="26" viewBox="0 0 26 26" fill="none" xmlns="http://www.w3.org/2000/svg">
<path d="M24.406 10.6332C25.1323 10.6332 25.4955 10.6333 25.7302 10.8627C25.965 11.0922 25.9732 11.4466 25.989 12.1546C26.0287 13.9293 25.956 15.6623 25.7615 17.6029C25.6037 19.1774 25.5244 19.9648 24.9666 20.5101C24.4087 21.0553 23.5967 21.1179 21.9734 21.2435C15.3849 21.7535 10.6101 21.7574 4.02905 21.2513C2.36924 21.1237 1.53884 21.0595 0.97827 20.5033C0.417943 19.9471 0.348946 19.1314 0.210692 17.5013C0.0499271 15.6057 -0.0191469 13.908 0.00659064 12.1712C0.0172089 11.4548 0.022417 11.0963 0.257567 10.8646C0.492719 10.6329 0.859581 10.6332 1.59253 10.6332H24.406ZM3.96948 15.2211C3.33606 15.2211 2.82202 15.7351 2.82202 16.3685C2.82225 17.0017 3.33619 17.515 3.96948 17.515H6.17944C6.81258 17.5148 7.3257 17.0016 7.32593 16.3685C7.32593 15.7352 6.81272 15.2212 6.17944 15.2211H3.96948ZM4.05054 4.63218C10.5918 4.18209 15.3524 4.18292 21.9011 4.63511C23.5549 4.74931 24.382 4.80633 24.946 5.35386C25.5101 5.90181 25.5903 6.70964 25.7488 8.32457C25.7495 8.3324 25.743 8.33922 25.7351 8.33922H1.95679C1.09383 8.33922 0.66225 8.33918 0.420653 8.04722C0.179112 7.75511 0.252639 7.36924 0.400145 6.598C0.505191 6.04877 0.666305 5.6669 0.975341 5.36265C1.54169 4.80517 2.37799 4.74727 4.05054 4.63218Z" fill="#0066B4"/>
</svg>

<svg xmlns="http://www.w3.org/2000/svg" width="26" height="26" fill="none" viewBox="0 0 26 26"><path fill="#0066b4" d="M24.406 10.633c.726 0 1.09 0 1.324.23.235.23.243.584.259 1.292a44 44 0 0 1-.227 5.448c-.158 1.574-.238 2.362-.795 2.907-.558.545-1.37.608-2.994.733-6.588.51-11.363.514-17.944.008-1.66-.127-2.49-.192-3.05-.748-.561-.556-.63-1.372-.768-3.002a53 53 0 0 1-.204-5.33c.01-.716.015-1.075.25-1.306.236-.232.603-.232 1.336-.232zM3.969 15.221a1.148 1.148 0 0 0 0 2.294h2.21a1.147 1.147 0 0 0 0-2.294zm.082-10.589c6.54-.45 11.301-.45 17.85.003 1.654.114 2.481.171 3.045.719s.644 1.356.803 2.97a.014.014 0 0 1-.014.015H1.957c-.863 0-1.295 0-1.536-.292S.253 7.37.4 6.598c.104-.55.265-.931.574-1.235.567-.558 1.403-.616 3.076-.73"/></svg>
